icons/svg/border-color.svg

﻿<?xml version="1.0" encoding="utf-8"?>
<!DOCTYPE svg PUBLIC "-//W3C//DTD SVG 1.1//EN" "http://www.w3.org/Graphics/SVG/1.1/DTD/svg11.dtd">
<svg xmlns="http://www.w3.org/2000/svg" xmlns:xlink="http://www.w3.org/1999/xlink" version="1.1" baseProfile="full" width="24" height="24" viewBox="0 0 24.00 24.00" enable-background="new 0 0 24.00 24.00" xml:space="preserve">
	<path fill="#000000" fill-opacity="1" stroke-width="0.2" stroke-linejoin="round" d="M 20.7062,4.04105C 21.0972,3.65005 21.0972,3.01804 20.7062,2.62704L 18.3702,0.291046C 17.9802,-0.0999451 17.3472,-0.0999451 16.9562,0.291046L 14.9992,2.24805L 18.7492,5.99805M 17.7492,6.99805L 13.9992,3.24805L 3.99919,13.248L 3.99919,16.998L 7.74919,16.998L 17.7492,6.99805 Z "/>
</svg>

<svg xmlns="http://www.w3.org/2000/svg" version="1.1" baseProfile="full" width="24" height="24" viewBox="0 0 24.00 24.00" xml:space="preserve"><path fill="#000" fill-opacity="1" stroke-width=".2" stroke-linejoin="round" d="M20.706 4.04c.39-.39.39-1.022 0-1.413L18.37.29c-.39-.39-1.023-.39-1.414 0L15 2.25l3.75 3.75m-1 1L14 3.248l-10 10v3.75h3.75l10-10z"/></svg>
